svgs/zulip.svg

<svg width="24" height="24" viewBox="0 0 24 24" fill="none" xmlns="http://www.w3.org/2000/svg">
<path d="M20 4.99048C20 5.99796 19.5966 6.8931 18.9817 7.43614L13.0129 13.4144C12.9021 13.521 12.758 13.3492 12.8379 13.2057L15.0273 8.28955C15.0887 8.1519 15.0091 7.98273 14.8832 7.98273H6.39131C5.07609 7.98273 4 6.63646 4 4.99136C4 3.34583 5.07609 2 6.39131 2H17.6087C18.9239 1.99911 20 3.34538 20 4.99048ZM6.39131 22H17.6087C18.9239 22 20 20.6537 20 19.0086C20 17.3631 18.9239 16.0173 17.6087 16.0173H9.11677C8.99087 16.0173 8.91129 15.8481 8.97266 15.7105L11.1621 10.7943C11.242 10.6508 11.0979 10.479 10.9871 10.5856L5.01829 16.563C4.40343 17.1056 4 18.0012 4 19.0086C4 20.6537 5.07609 22 6.39131 22Z" fill="#FFF1C0"/>
</svg>

<svg xmlns="http://www.w3.org/2000/svg" viewBox="0 0 24 24"><path d="M20 4.99c0 1.008-.403 1.903-1.018 2.446l-5.97 5.978c-.11.107-.254-.065-.174-.208l2.19-4.916c.06-.138-.019-.307-.145-.307H6.391C5.076 7.983 4 6.636 4 4.99S5.076 2 6.391 2H17.61C18.924 2 20 3.345 20 4.99M6.391 22H17.61c1.314 0 2.39-1.346 2.39-2.991 0-1.646-1.076-2.992-2.391-2.992H9.117c-.126 0-.206-.169-.144-.306l2.19-4.917c.079-.143-.065-.315-.176-.208l-5.969 5.977C4.403 17.106 4 18.001 4 19.009 4 20.654 5.076 22 6.391 22"/></svg>
